X: 30528
T: On Calton Hill
R: jig
M: 6/8
K: Gmajor
|:E|DGG BAG|AEE E2 C|DGG BAG|AB/c/d B2 A|
GDG BAG|AE^D E2 G|DEG BdG|ABA G2:|
|:d|gg/g/g ged|eB^A B2 G|AB/c/d GB/c/d|ee/e/e e2 d|
[1 gfg ged|egd e2 d|B^AB BdG|A^GA =G2:|
[2 g/a/ba ged|e/f/gd e2 d|BdA BdG|AdF G2||

